src/actions/symbolic/nudity-symbolic.svg

<svg width="16px" height="16px" version="1.1" xmlns="http://www.w3.org/2000/svg">
 <path d="m1.9688 0.011719v15.988h10v-3.2676c0.6254-0.2453 1.1913-0.61672 1.582-1.1641 0.59209-0.82931 0.91797-1.8973 0.91797-3.0566 0-1.1594-0.32588-2.2273-0.91797-3.0566-0.39077-0.54734-0.95664-0.91876-1.582-1.1641v-4.2793zm1 1h8v4c1.3828-1e-7 2.5 1.5664 2.5 3.5 0 1.9336-1.1172 3.5-2.5 3.5v2.9883h-2.9688v-2.2676c0.6254-0.2453 1.1913-0.61672 1.582-1.1641 0.59209-0.82931 0.91797-1.8973 0.91797-3.0566 0-1.1594-0.32588-2.2273-0.91797-3.0566-0.39077-0.54734-0.95664-0.91876-1.582-1.1641v-0.29102h-1v1.0117c1.3828-1e-7 2.5 1.5664 2.5 3.5 0 1.9336-1.1172 3.5-2.5 3.5v2.9883h-4.0312z" color="#000000" fill="#363636"/>
</svg>

<svg xmlns="http://www.w3.org/2000/svg" width="16" height="16">
    <path fill="#050505" fill-opacity=".7" d="M1.969.012V16h10v-3.268c.625-.245 1.191-.617 1.582-1.164.592-.83.918-1.897.918-3.057 0-1.159-.326-2.227-.918-3.056-.391-.548-.957-.919-1.582-1.164V.01zm1 1h8v4c1.383 0 2.5 1.566 2.5 3.5 0 1.933-1.117 3.5-2.5 3.5V15H8v-2.268c.625-.245 1.191-.616 1.582-1.164.592-.829.918-1.897.918-3.056 0-1.16-.326-2.228-.918-3.057-.39-.547-.957-.919-1.582-1.164V4H7v1.012c1.383 0 2.5 1.566 2.5 3.5 0 1.933-1.117 3.5-2.5 3.5V15H2.969z" color="#000"/>
</svg>
